X: 10478
T: Donncha Ó Loinsigh's
R: jig
M: 6/8
K: Cmajor
Gcc ecc|dcd ecA|Gcc ecc|ded dcA|
Gcc ecc|dcd ecc|def g2f|ecc c2A|
Gcc ecc|d2g ecA|Gcc ecc|ded dcA|
Gcc ecc|dcd ecc|def g2f|ecc c2A||
G3 GEG|Acc Acc|def g2f|ecc c2A|
GAG GEG|Acc Acc|def g2f|ecc c2A|
G3 G2c|Acc Acc|def g2f|ecc c2A|
GAG CEG|Afd cAc|def gfg|ecc c2A|

